!!!OTL: HERR OLOFF REITET SPAET UND WEIT
!!!ARE: Europa, Mitteleuropa, Deutschland, Westfalen
!!!SCT: Z0009
!!!YEM: Copyright 1995, estate of Helmut Schaffrath.
**kern
*ICvox
*Ivox
*M2/4
*k[b-e-a-d-]
*f:
=1
{2cc
=2
4b-
4cc
=3
4dd-
4b-
=4
4g
4cc
=5
2f}
=6
{2cc
=7
4b-
4cc
=8
4dd-
8b-
8b-
=9
4g
4cc
=10
2f}
=11
{2a-
=12
4a-
8a-
8a-
=13
4b-
8b-
8b-
=14
4b-
4b-
=15
2cc}
=16
{2a-
=17
4a-
4b-
=18
4cc
8a-
8a-
=19
4g
4a-
=20
2f}
=21
{2cc
=22
4b-
8cc
8cc
=23
4dd-
8b-
8b-
=24
4g
4cc
=25
2a-}
=26
{2cc
=27
4b-
8cc
8cc
=28
4dd-
8b-
8b-
=29
4g
4cc
=30
2f}
==
!!!AGN: Sagen - Lied, Romanze, Tod
!!!ONB: ESAC (Essen Associative Code) Database: ZUCCAL
!!!AMT: simple duple
!!!AIN: vox
!!!EED: Helmut Schaffrath
!!!EEV: 1.0
*-
